icons/svg/brush.svg

<svg xmlns="http://www.w3.org/2000/svg" version="1.1" baseProfile="full" width="24" height="24" viewBox="0 0 24.00 24.00" xml:space="preserve"><path fill="#000" fill-opacity="1" stroke-linejoin="round" d="M20.71 4.63l-1.34-1.34c-.39-.39-1.02-.39-1.41 0L9 12.25 11.75 15l8.96-8.96c.39-.39.39-1.02 0-1.41zM7 14c-1.66 0-3 1.34-3 3 0 1.31-1.16 2-2 2 .92 1.22 2.49 2 4 2 2.21 0 4-1.79 4-4 0-1.66-1.34-3-3-3z"/></svg>

﻿<?xml version="1.0" encoding="utf-8"?>
<!DOCTYPE svg PUBLIC "-//W3C//DTD SVG 1.1//EN" "http://www.w3.org/Graphics/SVG/1.1/DTD/svg11.dtd">
<svg xmlns="http://www.w3.org/2000/svg" xmlns:xlink="http://www.w3.org/1999/xlink" version="1.1" baseProfile="full" width="24" height="24" viewBox="0 0 24.00 24.00" enable-background="new 0 0 24.00 24.00" xml:space="preserve">
	<path fill="#000000" fill-opacity="1" stroke-linejoin="round" d="M 20.71,4.63L 19.37,3.29C 18.98,2.9 18.35,2.9 17.96,3.29L 9,12.25L 11.75,15L 20.71,6.04C 21.1,5.65 21.1,5.02 20.71,4.63 Z M 7,14C 5.34,14 4,15.34 4,17C 4,18.31 2.84,19 2,19C 2.92,20.22 4.49,21 6,21C 8.21,21 10,19.21 10,17C 10,15.34 8.66,14 7,14 Z "/>
</svg>
